X: 2
T: My Love Is In America
R: reel
M: 4/4
L: 1/8
K: Dmaj
|:F3G AB=cB | Ad d2 Ad d2 |FEFG AB=cA |GBAG FD D2 |
F3G AB=cB |Addc defg |af (3gfe fdAF |1 GBAG FDDE :|2 GBAG FDDg||
|;fd (3efg fdec |Ad d2 Adde |fdeg fdAF |GBAG FDDe |
fdeg fdec |Addc defg |afge fdAF |1 GBAG FDDg :|2 GBAG FDDE ||
|:FEFG AB=cB |Add=c Ad d2 |FD (3EFG AB=cA |GAAG FDDE |
FD (3EFG AB=cB |Addc d2 (3efg |a2 (3gfe fd=cA |GBAG FDDE ||
|:FD D2 AD D2 |dD D2 AD D2 |FDAD FD D2 | GBAG FD D2 |
FEFG AB=cB |Addc defg |af (3gfe fdAF | GBAG FDDg ||
|:fd d2 ed d2 | Ad d2 Ad d2 | fd d2 ed=cA |GBAG FDDg |
fded fdec |Addc defg | af (3gfe fdAF |GBAG FD D2 ||
|;fd (3efg fdec |Ad d2 Adde |fdeg fdAF |GBAG FDDe |
fdeg fdec |Addc defg |afge fdAF | GBAG FD D2 ||


Tune 77	Setting 21188

